public/favicon.svg

<svg xmlns="http://www.w3.org/2000/svg" width="82" height="82" fill="none" viewBox="0 0 82 82"><path fill="#ea5d57" d="M73.8 20.5H61.5V8.2c0-4.51-3.69-8.2-8.2-8.2H28.7c-4.51 0-8.2 3.69-8.2 8.2v12.3H8.2c-4.51 0-8.2 3.69-8.2 8.2v24.6c0 4.51 3.69 8.2 8.2 8.2h12.3v12.3c0 4.51 3.69 8.2 8.2 8.2h24.6c4.51 0 8.2-3.69 8.2-8.2V61.5h12.3c4.51 0 8.2-3.69 8.2-8.2V28.7c0-4.51-3.69-8.2-8.2-8.2"/><path fill="#d2242c" d="M61.5 20.5h-41v41h41z"/><path fill="#1860aa" d="M53.3 61.5H28.7c-4.51 0-8.2-3.69-8.2-8.2V28.7c0-4.51 3.69-8.2 8.2-8.2h24.6c4.51 0 8.2 3.69 8.2 8.2v24.6c0 4.51-3.69 8.2-8.2 8.2"/></svg>

<svg width="82" height="82" viewBox="0 0 82 82" fill="none" xmlns="http://www.w3.org/2000/svg">
<path d="M73.8 20.5H61.5V8.2C61.5 3.69 57.81 0 53.3 0H28.7C24.19 0 20.5 3.69 20.5 8.2V20.5H8.2C3.69 20.5 0 24.19 0 28.7V53.3C0 57.81 3.69 61.5 8.2 61.5H20.5V73.8C20.5 78.31 24.19 82 28.7 82H53.3C57.81 82 61.5 78.31 61.5 73.8V61.5H73.8C78.31 61.5 82 57.81 82 53.3V28.7C82 24.19 78.31 20.5 73.8 20.5Z" fill="#EA5D57"/>
<path d="M61.5 20.5H20.5V61.5H61.5V20.5Z" fill="#D2242C"/>
<path d="M53.3 61.5H28.7C24.19 61.5 20.5 57.81 20.5 53.3V28.7C20.5 24.19 24.19 20.5 28.7 20.5H53.3C57.81 20.5 61.5 24.19 61.5 28.7V53.3C61.5 57.81 57.81 61.5 53.3 61.5Z" fill="#1860AA"/>
</svg>
